X: 25722
T: Mary Do It Again
R: jig
M: 6/8
K: Amixolydian
B|:c2A Bcd|ecA A2B|cBA d2c|B2G G2B|
c2A Bcd|ecA A2c|efe d2e|1 c2A A2B:|2 c2A A2 e/f/||
|:~g3 gfe|d3 c2d|ea2 a2g|a2 ee2f|
~g3 gfe|d3 c2d|efe d2e|1 c2A A2 e/f/:|2 c2A A2B||

